src/assets/media/svg/sprite/youtube-logo.svg

<svg width="24" height="24" viewBox="0 0 24 24"  xmlns="http://www.w3.org/2000/svg">
<g clip-path="url(#clip0)">
<path d="M14.9748 2.26013V7.52925C14.9581 7.8633 14.9999 8.1977 15.0982 8.51738C15.153 8.67638 15.2604 8.81196 15.4026 8.90174C15.5448 8.99153 15.7134 9.03015 15.8805 9.01126C16.3335 9.01126 16.7861 8.72326 17.2391 8.18625V8.92725H18.474V2.26013H17.2391V7.36463C16.9511 7.73513 16.704 7.94101 16.4568 7.94101C16.2922 7.94101 16.2097 7.85851 16.1688 7.65301V2.26013H14.9748ZM12.1755 9.0525C12.4487 9.06281 12.7202 9.0041 12.9648 8.8818C13.2094 8.7595 13.4193 8.57756 13.575 8.35275C13.8572 7.88208 13.9866 7.33551 13.9455 6.78825V4.44188C13.9866 3.89462 13.8572 3.34805 13.575 2.87738C13.416 2.65595 13.2055 2.47654 12.9617 2.35463C12.7178 2.23272 12.448 2.17197 12.1755 2.17763C11.9022 2.16733 11.6307 2.22604 11.3861 2.34833C11.1415 2.47063 10.9317 2.65258 10.776 2.87738C10.4937 3.34805 10.3643 3.89462 10.4055 4.44188V6.78751C10.3643 7.33476 10.4937 7.88133 10.776 8.35201C10.9349 8.57357 11.1453 8.75313 11.3892 8.87517C11.633 8.99722 11.9029 9.05808 12.1755 9.0525ZM11.5991 4.19476C11.5991 3.57713 11.805 3.28913 12.1755 3.28913C12.546 3.28913 12.7519 3.57713 12.7519 4.19476V6.99413C12.7519 7.61175 12.546 7.94101 12.1755 7.94101C11.805 7.94101 11.5991 7.61175 11.5991 6.99413V4.19476ZM8.75885 8.97001V5.34751L10.3642 -0.00411987H9.0056L8.09998 3.495L7.1531 -0.00411987H5.7536C5.99998 0.73688 6.28873 1.56001 6.61798 2.50688C6.95008 3.43623 7.22559 4.38484 7.44298 5.34751V8.97001H8.75885Z" />
<path d="M21.2734 11.0696C20.9024 10.7174 20.424 10.4999 19.9147 10.452C18.2681 10.2874 15.798 10.164 12.5047 10.164C10.0313 10.1214 7.55741 10.2176 5.09473 10.452C4.59103 10.52 4.11849 10.7348 3.73611 11.0696C3.33956 11.4125 3.06504 11.8748 2.95386 12.387C2.70748 13.416 2.62498 14.9805 2.62498 17.0798C2.58884 18.651 2.69907 20.2221 2.95423 21.7729C3.06542 22.2852 3.33993 22.7475 3.73648 23.0903C4.10741 23.4425 4.58584 23.66 5.09511 23.7079C7.55778 23.9423 10.0317 24.0385 12.5051 23.9959C14.9786 24.0395 17.4525 23.9434 19.9151 23.7079C20.4286 23.6766 20.9125 23.4566 21.2737 23.0903C21.6703 22.7475 21.9448 22.2852 22.056 21.7729C22.3031 20.7439 22.3852 19.1794 22.3852 17.0798C22.4214 15.5086 22.3112 13.9374 22.056 12.3866C21.9379 11.8771 21.6645 11.4169 21.2734 11.0696ZM8.22336 13.7456H6.78261V21.3611H5.42436V13.7453H4.02448V12.4703H8.18248V13.7453L8.22336 13.7456ZM11.805 21.3611H10.6125V20.6201C10.1186 21.1553 9.66561 21.4451 9.25386 21.4451C9.08674 21.464 8.91818 21.4254 8.77597 21.3356C8.63376 21.2458 8.5264 21.1103 8.47161 20.9513C8.37326 20.6316 8.33151 20.2972 8.34823 19.9631V14.7334H9.58311V20.0438C9.62436 20.2496 9.70648 20.3318 9.87111 20.3318C10.1182 20.3318 10.365 20.1259 10.6534 19.7554V14.7334H11.8462L11.805 21.3611ZM16.3744 19.344C16.3995 19.7868 16.3579 20.2309 16.251 20.6614C16.2075 20.8775 16.0881 21.071 15.9145 21.2069C15.7409 21.3428 15.5244 21.4121 15.3041 21.4024C15.0565 21.3778 14.8173 21.2987 14.6038 21.1707C14.3903 21.0428 14.2078 20.8693 14.0692 20.6625V21.321H12.8752V12.471H14.0692V15.3938C14.2003 15.1801 14.381 15.0012 14.596 14.8722C14.811 14.7432 15.0539 14.6679 15.3041 14.6528C15.5244 14.6431 15.7409 14.7124 15.9145 14.8483C16.0881 14.9842 16.2075 15.1776 16.251 15.3938C16.3551 15.8247 16.3967 16.2684 16.3744 16.7111V19.344ZM20.9029 18.2738H18.5152V19.425C18.5152 20.0426 18.7211 20.3306 19.1329 20.3306C19.4209 20.3306 19.5859 20.166 19.668 19.8368C19.668 19.7543 19.7092 19.4663 19.7092 19.0118H20.9441V19.1764C20.9649 19.4378 20.9511 19.7009 20.9029 19.9586C20.8617 20.2236 20.7634 20.4764 20.6149 20.6996C20.4433 20.9177 20.2245 21.094 19.975 21.2152C19.7254 21.3365 19.4516 21.3994 19.1741 21.3994C18.8967 21.3994 18.6228 21.3365 18.3733 21.2152C18.1237 21.094 17.9049 20.9177 17.7334 20.6996C17.4511 20.229 17.3217 19.6824 17.3629 19.1351V16.833C17.3217 16.2858 17.4511 15.7392 17.7334 15.2685C17.8977 15.0427 18.115 14.8608 18.3662 14.7388C18.6173 14.6167 18.8947 14.5584 19.1737 14.5688C19.447 14.5585 19.7185 14.6172 19.9631 14.7395C20.2077 14.8618 20.4175 15.0437 20.5732 15.2685C20.8555 15.7392 20.9849 16.2858 20.9437 16.833L20.9025 18.2738H20.9029Z" />
<path d="M19.0916 15.7215C18.6791 15.7215 18.474 16.0095 18.474 16.6271V17.2447H19.668V16.6271C19.7089 16.05 19.5034 15.7215 19.0916 15.7215ZM14.6456 15.7215C14.5285 15.7247 14.4132 15.752 14.307 15.8015C14.2008 15.8511 14.1058 15.9218 14.028 16.0095V20.0437C14.1058 20.1314 14.2008 20.2022 14.307 20.2517C14.4132 20.3013 14.5285 20.3285 14.6456 20.3317C14.9749 20.3317 15.1808 20.0437 15.1808 19.4261V16.5859C15.1808 16.05 15.0161 15.7215 14.6456 15.7215Z" />
</g>
<defs>
<clipPath id="clip0001">
<rect width="24" height="24" />
</clipPath>
</defs>
</svg>

<svg xmlns="http://www.w3.org/2000/svg" width="24" height="24"><g clip-path="url(#clip0)"><path d="M14.975 2.26v5.27c-.017.333.025.668.123.987a.74.74 0 0 0 .782.494c.454 0 .906-.288 1.36-.825v.741h1.234V2.26h-1.235v5.105c-.288.37-.535.576-.782.576-.165 0-.247-.082-.288-.288V2.26zm-2.8 6.793a1.63 1.63 0 0 0 1.4-.7 2.65 2.65 0 0 0 .37-1.565V4.442a2.66 2.66 0 0 0-.37-1.565 1.68 1.68 0 0 0-1.4-.7 1.63 1.63 0 0 0-1.399.7 2.65 2.65 0 0 0-.37 1.565v2.346a2.65 2.65 0 0 0 .37 1.564 1.68 1.68 0 0 0 1.4.7M11.6 4.195c0-.618.206-.906.576-.906.371 0 .577.288.577.906v2.8c0 .617-.206.946-.577.946-.37 0-.576-.33-.576-.947zM8.76 8.97V5.348l1.605-5.352H9.006L8.1 3.495l-.947-3.5h-1.4c.247.742.536 1.565.865 2.512q.499 1.396.825 2.84V8.97zm12.513 2.1a2.3 2.3 0 0 0-1.358-.618c-1.647-.165-4.117-.288-7.41-.288a66 66 0 0 0-7.41.288 2.6 2.6 0 0 0-1.359.618 2.42 2.42 0 0 0-.782 1.317c-.247 1.029-.329 2.593-.329 4.693a25.3 25.3 0 0 0 .33 4.693c.11.512.385.974.781 1.317.371.352.85.57 1.36.618 2.462.234 4.936.33 7.41.288a66 66 0 0 0 7.41-.288 2.1 2.1 0 0 0 1.358-.618 2.42 2.42 0 0 0 .782-1.317c.247-1.03.33-2.594.33-4.693a25.3 25.3 0 0 0-.33-4.693 2.52 2.52 0 0 0-.783-1.317m-13.05 2.676h-1.44v7.615H5.424v-7.616h-1.4V12.47h4.158v1.275zm3.582 7.615h-1.192v-.74c-.494.534-.947.824-1.36.824a.74.74 0 0 1-.781-.494 2.9 2.9 0 0 1-.124-.988v-5.23h1.235v5.31c.041.207.123.289.288.289.247 0 .494-.206.782-.577v-5.022h1.193zm4.57-2.017c.024.443-.017.887-.124 1.317a.925.925 0 0 1-.947.741 1.69 1.69 0 0 1-1.235-.74v.659h-1.194v-8.85h1.194v2.923a1.56 1.56 0 0 1 1.235-.741.924.924 0 0 1 .947.74c.104.432.146.875.123 1.318zm4.528-1.07h-2.388v1.151c0 .618.206.906.618.906.288 0 .453-.165.535-.494 0-.083.041-.37.041-.825h1.235v.164q.03.395-.041.783a1.85 1.85 0 0 1-.288.74 1.834 1.834 0 0 1-2.882 0 2.65 2.65 0 0 1-.37-1.564v-2.302a2.65 2.65 0 0 1 .37-1.564 1.7 1.7 0 0 1 1.44-.7 1.63 1.63 0 0 1 1.4.7c.282.47.412 1.017.37 1.564z"/><path d="M19.092 15.722c-.413 0-.618.287-.618.905v.618h1.194v-.618c.04-.577-.165-.905-.576-.905m-4.446 0a.86.86 0 0 0-.618.287v4.035a.86.86 0 0 0 .618.288c.329 0 .535-.288.535-.906v-2.84c0-.536-.165-.864-.535-.864"/></g></svg>
